packages/core/src/svgs/tokens/mono/BSW.svg

<svg width="24" height="24" viewBox="0 0 24 24" fill="none" xmlns="http://www.w3.org/2000/svg">
<path d="M19.7644 5.7688C19.064 5.90639 18.4074 6.10024 17.8632 6.21906C17.1621 6.37093 16.5268 6.7406 16.0483 7.27523C15.5698 7.80986 15.2726 8.48209 15.1992 9.19577C14.9741 10.753 15.4994 11.422 15.2681 13.2357C14.8678 16.3938 11.8285 17.4882 10.4153 18.1448C9.60223 18.5199 7.60734 19.3955 6.0752 20.0646C8.02856 21.4962 10.4348 22.1707 12.8477 21.9632C15.2606 21.7555 17.5162 20.6798 19.1963 18.9355C20.8764 17.1914 21.8669 14.8969 21.984 12.4779C22.1011 10.059 21.337 7.67969 19.8331 5.7813L19.7581 5.7688H19.7644Z" fill="white"/>
<path d="M10.8846 10.5401C11.6537 8.87669 11.3787 8.87044 11.9602 7.30703C12.1118 6.8389 12.4131 6.43354 12.8176 6.15333C13.2221 5.87311 13.7074 5.73355 14.199 5.75612C14.7743 5.75612 15.3746 5.93749 15.631 5.96874C16.6755 6.11259 16.9443 5.73736 19.1519 5.38716L19.4646 5.34338C18.367 4.11279 16.9819 3.17276 15.433 2.60699C13.8842 2.04122 12.2194 1.86727 10.5871 2.10066C8.95462 2.33402 7.40527 2.96748 6.07695 3.94459C4.74864 4.92171 3.68258 6.21215 2.97372 7.70101C6.28189 8.51398 9.84653 10.2963 10.8846 10.5401ZM8.6958 3.75496C8.98973 3.79873 10.4031 5.54975 10.6657 10.0586C10.6657 10.0586 8.85214 9.62081 8.45816 8.68283C8.13923 7.91989 8.55822 6.90679 8.6958 3.75496ZM19.8273 5.75612L19.846 5.77489L19.7647 5.76863C19.7897 5.75612 19.8085 5.75612 19.8273 5.75612ZM2.0044 12.0098C2.0044 11.2093 2.09821 10.4339 2.27332 9.69596C2.63602 9.99611 3.02374 10.3338 3.43649 10.7152C6.04425 13.1291 10.2843 15.0366 11.8288 13.2667H11.8351C11.5538 13.642 10.5344 14.7301 8.47692 14.3611L5.1625 19.3077C4.16407 18.3727 3.36852 17.2423 2.82525 15.9868C2.28198 14.7314 2.00259 13.3778 2.0044 12.0098Z" fill="white"/>
</svg>

<svg xmlns="http://www.w3.org/2000/svg" width="24" height="24" fill="none" viewBox="0 0 24 24">
    <path fill="#fff" d="M19.764 5.769c-.7.137-1.357.331-1.9.45a3.4 3.4 0 0 0-2.665 2.977c-.225 1.557.3 2.226.07 4.04-.401 3.158-3.44 4.252-4.854 4.909-.813.375-2.808 1.25-4.34 1.92A10.006 10.006 0 0 0 19.833 5.78l-.075-.012z"/>
    <path fill="#fff" d="M10.885 10.54c.769-1.663.494-1.67 1.075-3.233a2.245 2.245 0 0 1 2.239-1.55c.575 0 1.176.18 1.432.212 1.044.144 1.313-.232 3.52-.582l.314-.044A10 10 0 0 0 2.974 7.701c3.308.813 6.873 2.595 7.91 2.84m-2.19-6.785c.295.044 1.708 1.795 1.97 6.304 0 0-1.813-.438-2.207-1.376-.319-.763.1-1.776.238-4.928m11.132 2.001.019.019-.081-.006c.025-.013.043-.013.062-.013M2.004 12.01c0-.8.094-1.576.27-2.314q.543.449 1.162 1.02c2.608 2.413 6.848 4.32 8.393 2.55h.006c-.281.376-1.3 1.464-3.358 1.095l-3.315 4.947a9.98 9.98 0 0 1-3.158-7.298"/>
</svg>
